public/icons/stratagems/Engineering Bay/Shield Generator Pack.svg

<svg xmlns="http://www.w3.org/2000/svg" viewBox="0 0 126 126" fill="#fff">
	<g fill="#49adc9">
		<path d="M79 41h9v10h-9z"/>
		<path d="M75 41H64l-10-9v14l11 4v48h39l9-9V32l-10 9H92v14H75V41Z"/>
		<path d="m54 27 11 10h37l11-10V16H54v11Z"/>
	</g>
	<path d="M8 99s24 16 26 16 26-16 26-16V53s-22-6-26-6-26 6-26 6v46Zm15-18 15-21-5 17h12L30 97l5-16H23Z"/>
</svg>

<svg xmlns="http://www.w3.org/2000/svg" xmlns:xlink="http://www.w3.org/1999/xlink" viewBox="0 0 126 126">
  <defs>
    <style>
      .cls-1, .cls-2 {
        fill: #49adc9;
      }

      .cls-2, .cls-3 {
        fill-rule: evenodd;
      }

      .cls-3 {
        fill: #fff;
      }
    </style>
  </defs>
  <rect class="cls-1" x="79" y="41" width="9" height="10"/>
  <path class="cls-2" d="M75,41H64L54,32V46l11,4V98h39l9-9V32l-10,9H92V55H75V41Z"/>
  <path class="cls-3" d="M31,63"/>
  <path class="cls-2" d="M54,27L65,37h37l11-10V16H54V27Z"/>
  <path class="cls-3" d="M8,99s24,16,26,16S60,99,60,99V53s-22.07-6-26-6S8,53,8,53V99ZM23,81L38,60,33,77H45L30,97l5-16H23Z"/>
</svg>
